X:1
T:Your Word Is a Lamp for My Feet
T:Your Word Is a Lamp for My Feet
T:Lindsay Stein
T:Lindsay Stein, 2004
T:Public Domain Courtesy of the Cyber Hymnal™
C:Lindsay Stein
Z:Public Domain
Z:Courtesy of the Cyber Hymnal™
%%score ( 1 2 ) ( 3 4 )
L:1/8
Q:1/4=90
M:6/8
K:F
V:1 treble 
V:2 treble 
V:3 bass 
V:4 bass 
V:1
 C | F2 F/G/ _AGF | [CG]3- [CG]2 c/B/ | [C_A]3 G2 A | G F2- [CF]2 C/C/ | F2 G _AGF | %6
w: 1.~Your|Word is a lamp for my|feet, * and a|light for my|path- way. I will hide|Your Word in my heart,|
w: 2.~Your|Word is a lamp for my|feet, * and a|light for my|path- way. I will hide|Your Word in my heart,|
 [CG]3- [CG]2 c | _A>AA GAG | [CF]3- [CF]2 C | AAA AGF | F E2- [CE]2 C/C/ | BBG ccB | %12
w: and * me-|di- tate on it each day.|Your * Word|has the power to give wis-|dom; It’s a teach- er,|the e- qual * of none;|
w: and * me-|di- tate on it each day.|All * script-|ure by God is in- spir-|èd; It re- bukes us|when we go * a- stray,|
 [CFA]3- [CFA]2 F/E/ | DBB BAG | c (F2- [CF]2) E/D/ | CBG cEE | ([A,-F]3 [A,F]2) |] %17
w: I * have sought|and found truth in Your teach-|ing of * Sal- va-|tion through Je- sus, Your Son.||
w: It * is use-|ful for teach- ing, cor- rect-|ing, And * to train|us for liv- ing God’s way.||
V:2
 x | _A,3 C3 | x6 | x3 C3 | C3- x3 | C3 C3 | x6 | C3 C3 | x6 | C3 C3 | C3- x3 | E3 G3 | x6 | %13
 B,3 B,3 | F3 x3 | C3 E3 | x5 |] %17
V:3
 z | [F,,C,F,]3 [F,,C,F,]3 | B,3- [C,B,]2 z | [F,_A,]3 [C,B,]3 | [F,_A,]3- [F,A,]2 z | %5
 [F,,C,F,]3 [F,,C,F,]3 | B,3- B,2 z | [F,_A,]3 [C,B,]3 | [F,_A,]3- [F,A,]2 z | [F,,C,F,]3 A,3 | %10
 [C,E,-G,-]3 [C,,E,G,]2 z | [C,B,]3 B,3 | A,3- [F,,A,]2 z | [B,,F,]3 F,3 | A,3 [F,,A,]2 z | %15
 [C,B,]3 [C,B,]3 | F,3- [F,,F,]2 |] %17
V:4
 x | x6 | C,E,G, x3 | x6 | x6 | x6 | C,E,G, x3 | x6 | x6 | x3 F,,G,,A,, | x6 | x3 C,D,E, | %12
 F,2 C, x3 | x3 C,D,E, | F,2 C, x3 | x6 | F,,2 C, x2 |] %17

